src/icons/document-save.svg

<svg height="32" viewBox="0 0 32 32" width="32" xmlns="http://www.w3.org/2000/svg"><g fill="#4285f4"><path d="m10.638672 11.392578v4.900391h9.177734v-4.900391zm5.570312.472656h1.582032c.115074 0 .208984.107395.208984.240235v3.519531c0 .13288-.09391.240234-.208984.240234h-1.582032c-.115074 0-.208984-.107354-.208984-.240234v-3.519531c0-.13284.09391-.240235.208984-.240235z"/><path d="m2.7773438 2c-.4308891 0-.7773438.446-.7773438 1v3.921875 2.078125 20.078125c0 .5114.3190539.921875.7167969.921875h26.5664061c.397743 0 .716797-.410474.716797-.921875v-22.15625c0-.5114-.319054-.921875-.716797-.921875h-12.726562c-.886457.034-1.316068-.2643281-1.707032-.7363281l-1.849609-2.4199219c-.261411-.4404-.457783-.84375-.888672-.84375zm5.890625 7.8652344h11.5585932c.177306 0 .347317.0699782.472657.1953126l3.105469 3.105469c.125372.125341.195312.295442.195312.472656v11.558594c0 .369134-.298835.667968-.667969.667968h-14.6640622c-.369134 0-.6679688-.298834-.6679688-.667968v-14.664063c0-.369094.2988347-.6679686.6679688-.6679686z"/></g></svg>

<?xml version="1.0" encoding="UTF-8" standalone="no"?>
<svg
   xmlns:dc="http://purl.org/dc/elements/1.1/"
   xmlns:cc="http://creativecommons.org/ns#"
   xmlns:rdf="http://www.w3.org/1999/02/22-rdf-syntax-ns#"
   xmlns:svg="http://www.w3.org/2000/svg"
   xmlns="http://www.w3.org/2000/svg"
   xmlns:sodipodi="http://sodipodi.sourceforge.net/DTD/sodipodi-0.dtd"
   xmlns:inkscape="http://www.inkscape.org/namespaces/inkscape"
   viewBox="0 0 32 32"
   version="1.1"
   id="svg6"
   sodipodi:docname="document-save.svg"
   inkscape:version="1.0.1 (3bc2e813f5, 2020-09-07)"
   width="32"
   height="32">
  <metadata
     id="metadata10">
    <rdf:RDF>
      <cc:Work
         rdf:about="">
        <dc:format>image/svg+xml</dc:format>
        <dc:type
           rdf:resource="http://purl.org/dc/dcmitype/StillImage" />
        <dc:title />
      </cc:Work>
    </rdf:RDF>
  </metadata>
  <sodipodi:namedview
     pagecolor="#ffffff"
     bordercolor="#666666"
     borderopacity="1"
     objecttolerance="10"
     gridtolerance="10"
     guidetolerance="10"
     inkscape:pageopacity="0"
     inkscape:pageshadow="2"
     inkscape:window-width="1366"
     inkscape:window-height="702"
     id="namedview8"
     showgrid="false"
     inkscape:zoom="10.727273"
     inkscape:cx="0.88559347"
     inkscape:cy="11"
     inkscape:window-x="0"
     inkscape:window-y="0"
     inkscape:window-maximized="1"
     inkscape:current-layer="svg6"
     inkscape:document-rotation="0" />
  <defs
     id="defs">
    <style
       type="text/css"
       id="current-color-scheme">
        .ColorScheme-Text { color: #f2f2f2; }
    </style>
  </defs>
  <g
     id="g28">
    <path
       id="path23"
       style="color:#f2f2f2;fill:#4285f4;fill-opacity:1;stroke:none;stroke-width:1.76383"
       d="m 10.638672,11.392578 v 4.900391 h 9.177734 v -4.900391 z m 5.570312,0.472656 h 1.582032 C 17.90609,11.865234 18,11.972629 18,12.105469 V 15.625 c 0,0.13288 -0.09391,0.240234 -0.208984,0.240234 H 16.208984 C 16.09391,15.865234 16,15.75788 16,15.625 v -3.519531 c 0,-0.13284 0.09391,-0.240235 0.208984,-0.240235 z" />
    <path
       id="path19"
       style="color:#f2f2f2;fill:#4285f4;fill-opacity:1;stroke:none;stroke-width:1.76383"
       d="M 2.7773438 2 C 2.3464547 2 2 2.446 2 3 L 2 6.921875 L 2 9 L 2 29.078125 C 2 29.589525 2.3190539 30 2.7167969 30 L 29.283203 30 C 29.680946 30 30 29.589526 30 29.078125 L 30 6.921875 C 30 6.410475 29.680946 6 29.283203 6 L 16.556641 6 C 15.670184 6.034 15.240573 5.7356719 14.849609 5.2636719 L 13 2.84375 C 12.738589 2.40335 12.542217 2 12.111328 2 L 2.7773438 2 z M 8.6679688 9.8652344 L 20.226562 9.8652344 C 20.403868 9.8652344 20.573879 9.9352126 20.699219 10.060547 L 23.804688 13.166016 C 23.93006 13.291357 24 13.461458 24 13.638672 L 24 25.197266 C 24 25.5664 23.701165 25.865234 23.332031 25.865234 L 8.6679688 25.865234 C 8.2988348 25.865234 8 25.5664 8 25.197266 L 8 10.533203 C 8 10.164109 8.2988347 9.8652344 8.6679688 9.8652344 z " />
  </g>
</svg>
